Numix-GalliumOS/16/mimetypes/text-x-lilypond.svg

<?xml version="1.0" encoding="UTF-8" standalone="no"?>
<svg
   xmlns:dc="http://purl.org/dc/elements/1.1/"
   xmlns:cc="http://creativecommons.org/ns#"
   xmlns:rdf="http://www.w3.org/1999/02/22-rdf-syntax-ns#"
   xmlns:svg="http://www.w3.org/2000/svg"
   xmlns="http://www.w3.org/2000/svg"
   xmlns:sodipodi="http://sodipodi.sourceforge.net/DTD/sodipodi-0.dtd"
   xmlns:inkscape="http://www.inkscape.org/namespaces/inkscape"
   width="16"
   height="16"
   viewBox="0 0 16 16"
   id="svg2992"
   version="1.1"
   inkscape:version="0.91 r13725"
   sodipodi:docname="text-x-lilypond.svg">
  <metadata
     id="metadata3006">
    <rdf:RDF>
      <cc:Work
         rdf:about="">
        <dc:format>image/svg+xml</dc:format>
        <dc:type
           rdf:resource="http://purl.org/dc/dcmitype/StillImage" />
      </cc:Work>
    </rdf:RDF>
  </metadata>
  <defs
     id="defs3004" />
  <sodipodi:namedview
     pagecolor="#ffffff"
     bordercolor="#666666"
     borderopacity="1"
     objecttolerance="10"
     gridtolerance="10"
     guidetolerance="10"
     inkscape:pageopacity="0"
     inkscape:pageshadow="2"
     inkscape:window-width="1366"
     inkscape:window-height="713"
     id="namedview3002"
     showgrid="false"
     inkscape:zoom="1"
     inkscape:cx="-9.7913594"
     inkscape:cy="5.2394354"
     inkscape:window-x="0"
     inkscape:window-y="28"
     inkscape:window-maximized="1"
     inkscape:current-layer="svg2992">
    <inkscape:grid
       type="xygrid"
       id="grid3053" />
  </sodipodi:namedview>
  <path
     style="fill:#dcdcdc;fill-opacity:1"
     d="M 2.667969,-4.46e-4 C 2.324219,-4.46e-4 2,0.337812 2,0.6964467 L 2,15.303108 C 2,15.641365 2.34375,16 2.667969,16 l 10.664062,0 C 13.65625,16 14,15.641365 14,15.303108 l 0,-11.303554 -4.0000005,-4 z"
     id="path4"
     inkscape:connector-curvature="0"
     sodipodi:nodetypes="ssssssccs" />
  <path
     style="fill:#000000;fill-opacity:0.19599998"
     d="m 10.583223,3.331585 0.0154,0.019531 0.04005,-0.019531 z m 0.02978,0.667969 3.386999,3.664062 0,-3.664062 z"
     id="path6"
     inkscape:connector-curvature="0"
     sodipodi:nodetypes="cccccccc" />
  <path
     style="fill:#ffffff;fill-opacity:0.39200003"
     d="m 9.9999995,-4.46e-4 3.9963965,4 -3.383784,0 c -0.299099,0 -0.6126125,-0.3171171 -0.6126125,-0.6162164 z"
     id="path8"
     inkscape:connector-curvature="0"
     sodipodi:nodetypes="ccssc" />
  <path
     style="fill:#555555;fill-opacity:1"
     d="M 8.6031955,5.7485708 C 8.0171793,5.8828608 7.5307856,6.3716729 7.5307856,6.3716729 l 0.011717,0.016114 0.931766,3.179962 C 7.8120707,9.2347129 6.8568641,9.3206578 6.0657435,9.8416982 5.0519345,10.513144 4.694465,11.668029 5.2863409,12.409303 c 0.5860161,0.741275 1.8928324,0.789619 2.9066399,0.118178 0.808703,-0.531786 1.2540752,-1.369748 1.0899907,-2.062679 -0.00587,-0.02149 -0.011716,-0.0376 -0.017581,-0.05909 L 8.368786,7.225751 C 8.392227,7.1988936 8.6559335,7.0914624 9.4997967,7.0377461 10.396401,6.9786601 10.999998,5.6679998 10.999998,5.6679998 c 0,0 -1.0079477,0.349151 -1.7990699,0.096687 -0.1992417,-0.06446 -0.4043477,-0.06446 -0.5977326,-0.016116 z"
     id="path3000"
     inkscape:connector-curvature="0" />
</svg>

<svg xmlns="http://www.w3.org/2000/svg" viewBox="0 0 16 16">
 <path d="m 2.668 0 c -0.344 0 -0.668 0.338 -0.668 0.697 l 0 14.607 c 0 0.338 0.344 0.697 0.668 0.697 l 10.664 0 c 0.324 0 0.668 -0.359 0.668 -0.697 l 0 -11.304 -4 -4 z" style="fill:#dcdcdc;fill-opacity:1"/>
 <path d="m 10.583 3.332 0.015 0.02 0.04 -0.02 z m 0.03 0.668 3.387 3.664 0 -3.664 z" style="fill:#000;fill-opacity:0.196"/>
 <path d="m 10 0 3.996 4 -3.384 0 c -0.299 0 -0.613 -0.317 -0.613 -0.616 z" style="fill:#fff;fill-opacity:0.392"/>
 <path d="m 8.603 5.749 c -0.586 0.134 -1.072 0.623 -1.072 0.623 l 0.012 0.016 0.932 3.18 c -0.662 -0.333 -1.617 -0.247 -2.409 0.274 -1.014 0.671 -1.371 1.826 -0.779 2.568 c 0.586 0.741 1.893 0.79 2.907 0.118 0.809 -0.532 1.254 -1.37 1.09 -2.063 -0.006 -0.021 -0.012 -0.038 -0.018 -0.059 l -0.897 -3.18 c 0.023 -0.027 0.287 -0.134 1.131 -0.188 0.897 -0.059 1.5 -1.37 1.5 -1.37 c 0 0 -1.01 0.349 -1.799 0.097 -0.199 -0.064 -0.404 -0.064 -0.598 -0.016 z" style="fill:#555;fill-opacity:1"/>
</svg>
